X:2
T:Joy to the World [G]
C:Music: Traditional, Words: Isaac Watts
Z:ABC by Thornton Rose, December 2001
M:2/4
L:1/4
K:D
"D"d c/2>B/2 | A>"Em"G | "D"F "A7"E | "D"D>A | "G"B>B | "A7"c>c |
"D"d>d | "D"d/2c/2 B/2A/2 | A/2>G/2F/2 d/2 | d/2c/2 B/2A/2 |
A/2>G/2F/2 F/2 | F/2F/2 F/2F/4G/4 | A3/2 G/4F/4 |
"A"E/2E/2 E/2E/4G/4 | "A7"G3/2 F/4E/4 | ("D"D/2d) "G"B/2 |
(A/2>G/2F/2) "Em"G/2 | "D"F "A7"E | "D"D2 |]
%
W:1. Joy to the world! The Lord is come:
W:Let earth receive her King.
W:Let ev'ry heart prepare Him room,
W:And heav'n and nature sing,
W:And heav'n and nature sing,
W:And heav'n, and heav'n, and nature sing.
W:
W:2. Joy to the world! the Saviour reigns.
W:Let men their songs employ,
W:While fields and floods, rocks,hills and plains
W:Repeat the sounding joy.
W:Repeat the sounding joy.
W:Repeat, repeat the sounding joy.
W:
W:3. No more let sins and sorrows grow,
W:nor thorns infest the ground:
W:he comes to make his blessings flow
W:Far as the curse is found.
W:Far as the curse is found.
W:Far as, far as the curse is found.
W:
W:4. He rules the world with truth and grace,
W:And makes the nations prove
W:The glories of His righteousness
W:And wonders of His love,
W:And wonders of His love,
W:And wonders, wonders of His love.
%--------------------------------------------------------------------
